packages/core/src/svgs/tokens/mono/PGX.svg

<svg width="24" height="24" viewBox="0 0 24 24" fill="none" xmlns="http://www.w3.org/2000/svg">
<path d="M2.53674 16.4512C3.01406 15.8965 4.48471 15.2257 7.05192 15.2257H11.7283C15.1469 15.2321 21.9843 13.5228 21.9843 7.93047C22.1519 6.05989 21.0553 2.3252 15.3148 2.3252C9.57401 2.3252 7.39378 4.04096 6.41334 5.89218L2.23358 16.2836C2.18843 16.3931 2.27227 16.5158 2.39483 16.5158C2.45288 16.5158 2.50449 16.4899 2.53674 16.4512ZM8.45162 11.5878L9.89007 7.59505C9.90843 7.54802 9.93462 7.50442 9.96743 7.46604C10.3544 7.00808 12.1025 6.19535 13.7924 6.19535H13.8762C16.0435 6.19535 18.127 6.19535 18.127 7.88532C18.127 9.60112 15.6308 11.3556 12.5024 11.3556H9.72873C9.23853 11.3556 8.82569 11.4845 8.58708 11.5491L8.45162 11.5878Z" fill="white"/>
<path d="M8.0258 21.0053C7.68394 21.7793 6.98085 21.6696 6.55515 21.6696C2.68499 21.6696 1.91096 20.1603 2.00772 19.3992C2.8398 16.4192 8.45796 16.516 9.1868 16.516C9.77377 16.516 9.78025 16.9416 9.70936 17.1609L8.0258 21.0053Z" fill="white"/>
</svg>

<svg xmlns="http://www.w3.org/2000/svg" width="24" height="24" fill="none" viewBox="0 0 24 24">
    <path fill="#fff" d="M2.537 16.451c.477-.555 1.948-1.225 4.515-1.225h4.676c3.419.006 10.256-1.703 10.256-7.296.168-1.87-.929-5.605-6.67-5.605s-7.92 1.716-8.9 3.567l-4.18 10.392a.17.17 0 0 0 .16.232c.059 0 .11-.026.143-.065m5.915-4.863L9.89 7.595a.5.5 0 0 1 .077-.129c.387-.458 2.135-1.27 3.825-1.27h.084c2.168 0 4.251 0 4.251 1.69 0 1.715-2.496 3.47-5.625 3.47H9.73c-.49 0-.903.129-1.142.193zm-.426 9.417c-.342.774-1.045.665-1.47.665-3.871 0-4.645-1.51-4.548-2.27.832-2.98 6.45-2.884 7.179-2.884.587 0 .593.426.522.645z"/>
</svg>
